X:17856
T:True Blue Hornpipe. BF12.19
M:2/2
L:1/8
Q:160
C:Browne "C" hand
S:MS12,c1835,Browne Coll.,Lakes
R:Hornpipe
O:England
A:Lakes
Z:vmp.Cherri Graebe.
K:G major
dc|dgdB GBdB|cBAG FGAB|cBcd edcB|A2D2D2dc|!
BgdB GBdB|cBAG FGAB|cedc BAGF|"F's in ms"G2G2G2:|!
|:DC|B,DGB dBGD|EGed cBAG|FGAB cBAG|"crot"AGFED2 DC|!
B,DGB dBGD|EGed cBAG|FGAB "crots"cAFA|G2G2G2:||
